**kern
*staff3
*tb16
=1-
*clefF4
*k[f#c#g#]
*M3/8
8r
.
8r
.
8r
.
=2
[4.AA\ [4.A\
.
.
.
.
.
=3
4.AA\] 4.A\]
.
.
.
.
.
=4
[4.AA\ [4.A\
.
.
.
.
.
=5
4.AA\] 4.A\]
.
.
.
.
.
=6
!!linebreak:original
[4.AA\ [4.A\
.
.
.
.
.
=7
4.AA\] 4.A\]
.
.
.
.
.
=8
8AA/L
.
8AA/
.
8AA/J
.
=9
4GG#/
.
.
.
8AA/
.
=10
!!linebreak:original
16EE/
16E/JJ
4r
.
.
.
=11
4.r
.
.
.
.
.
=12
[4.E\
.
.
.
.
.
=13
4E\]
.
.
.
8EE/
.
=14
4FF#/
.
.
.
8F#\
.
=15
!!linebreak:original
4BB/
.
.
.
8r
.
=16
4r
.
.
.
8D\
.
=17
4E\
.
.
.
8E\
.
=18
8AA/L
.
8AA/
.
8AA/J
.
=19
!!linebreak:original
8AA/L
.
8BB/
.
8C#/J
.
=20
4.D\
.
.
.
.
.
=21
4.E\ 4.B\
.
.
.
.
.
=22
[4.AA\ [4.A\
.
.
.
.
.
=23
4AA\] 4A\]
.
.
.
==
*-
